static/images/logo-mick-schroeder.svg

<svg height="150" viewBox="0 0 1150 150" width="1150" xmlns="http://www.w3.org/2000/svg"><path d="m1057.040039 132h28.511963v-29.519997c0-16.128006 5.904053-22.608001 17.280029-22.608001 5.76001 0 8.351929.863998 11.231934 1.872001v-25.199997c-2.880005-.720001-5.615967-1.152008-8.351929-1.152008-10.368042 0-16.416015 4.751999-21.024048 13.824005h-.287964v-11.951995h-27.359985zm-4.752075-30.959999c0-29.232002-12.815918-45.648003-42.479981-45.648003-23.760009 0-39.455993 17.712006-39.455993 39.456002 0 24.912002 18 39.024009 41.903991 39.024009 16.848023 0 32.687989-7.488006 38.447998-23.616012h-26.640014c-2.303955 3.600006-7.343994 5.328003-11.951965 5.328003-9.072022 0-13.823975-5.904-14.544007-14.543999zm-54.575989-14.832001c1.296021-8.064003 6.048035-12.528007 14.688049-12.528007 7.343995 0 12.527955 5.616005 12.527955 12.528007zm-60.047974 8.351998c0 8.784004-2.304016 18.576004-12.528015 18.576004s-12.528015-9.792-12.528015-18.576004c0-8.783997 2.304016-18.432 12.528015-18.432s12.528015 9.648003 12.528015 18.432zm27.504029-65.375992h-28.512024v36.287994h-.288025c-4.463989-6.335998-11.807983-10.080002-20.447998-10.080002-25.055969 0-31.823975 21.168-31.823975 38.880005 0 18.863999 10.223999 39.600006 31.391968 39.600006 13.824036 0 18.432007-5.472015 21.888001-10.080009h.288024v8.208h27.504029zm-82.512024 71.855995c0-29.232002-12.815979-45.648003-42.479981-45.648003-23.760009 0-39.456054 17.712006-39.456054 39.456002 0 24.912002 18 39.024009 41.904052 39.024009 16.847962 0 32.687989-7.488006 38.447998-23.616012h-26.640014c-2.304016 3.600006-7.343994 5.328003-11.952027 5.328003-9.07196 0-13.823974-5.904-14.544006-14.543999zm-54.575989-14.832001c1.29596-8.064003 6.047974-12.528007 14.687988-12.528007 7.343995 0 12.528016 5.616005 12.528016 12.528007zm-247.968017 45.792h28.512023v-39.456001c0-11.951996 6.335999-14.400002 11.375977-14.400002 8.35199 0 9.359985 6.048004 9.359985 14.688004v39.167999h28.512024v-51.264c0-17.135994-12.23999-25.344002-25.632019-25.344002-12.096008 0-18.575989 4.175995-23.328003 9.936005h-.287964v-36.143997h-28.512023zm-5.471985-46.367996c-1.87201-20.736008-18.288025-30.240006-38.015992-30.240006-22.463989 0-40.464019 15.695999-40.464019 39.312004 0 23.615998 18.00003 39.168007 40.464019 39.168007 20.159974 0 36.143982-11.376007 38.880005-31.680008h-27.216003c-.57605 5.904-4.895996 10.944001-11.088013 10.944001-10.944031 0-12.528015-9.216004-12.528015-18.432 0-9.071998 1.583984-18.576004 12.528015-18.576004 3.023987 0 5.328003.863999 7.200012 2.447998 1.871949 1.584008 2.880005 3.888001 3.167969 7.056008zm-81.648011-6.624001c-.720001-19.152-20.160003-23.616005-36.287994-23.616005-14.976013 0-35.279999 4.895996-35.279999 23.760002 0 12.816002 8.783997 19.872002 30.527985 23.472001 13.248016 2.304 15.696014 3.599998 15.696014 7.919998 0 4.319999-5.904022 5.760002-9.64801 5.760002-3.455994 0-6.048004-.720001-7.631989-2.160004-2.160003-1.871994-3.312011-4.175995-3.456024-6.624h-27.215973c.431977 19.296005 19.727997 26.352012 37.29599 26.352012 18.143982 0 38.015992-5.616012 38.015992-26.352012 0-12.239998-8.208008-17.855996-17.855988-20.879998-9.503998-3.024002-20.447998-3.888-25.056-5.760002-1.584015-.719993-3.312011-1.727997-3.312011-3.888 0-4.751992 4.608001-5.760002 8.640014-5.760002 2.447998 0 4.608002.720001 6.335999 2.160003 1.871979 1.296006 3.167999 3.168 3.311981 5.616005zm-190.223999 52.991997h28.511994v-21.599998l5.040008-5.472001 15.264008 27.071999h34.271973l-30.815979-46.512001 26.639984-28.223991h-32.255982l-18.144012 21.59999v-49.679992h-28.511994zm-6.048004-46.367996c-1.872009-20.736008-18.287994-30.240006-38.016022-30.240006-22.463974 0-40.463974 15.695999-40.463974 39.312004 0 23.615998 18 39.168007 40.463974 39.168007 20.160035 0 36.144013-11.376007 38.880036-31.680008h-27.216004c-.576019 5.904-4.896026 10.944001-11.088012 10.944001-10.944 0-12.528-9.216004-12.528-18.432 0-9.071998 1.584-18.576004 12.528-18.576004 3.023987 0 5.328003.863999 7.200012 2.447998 1.871979 1.584008 2.879974 3.888001 3.167999 7.056008zm-84.384002-56.447998h-28.511994v20.015991h28.511994zm-28.511994 102.815994h28.511994v-74.735992h-28.511994zm-132.192005 0h28.511997v-40.463997c0-7.920006 2.304001-13.392006 9.648003-13.392006 8.639999 0 9.36 6.336006 9.36 13.392006v40.463997h28.512001v-40.463997c0-7.920006 2.304001-13.392006 9.647995-13.392006 8.64 0 9.360001 6.336006 9.360001 13.392006v40.463997h28.512009v-51.264c0-12.096001-6.480011-25.344002-25.632004-25.344002-18.576004 0-24.335999 10.944001-25.487999 11.664002-3.456001-7.488007-12.096001-11.664002-20.160004-11.664002-10.367996 0-18.720001 3.168-24.479995 11.807999h-.288002v-9.935989h-27.504002zm706.320026-76.608002c28.079956 0 40.751953 18.576004 40.751953 39.168 0 20.736-12.671997 39.312011-40.751953 39.312011-28.080017 0-40.752014-18.576011-40.752014-39.312011 0-4.849228.702698-9.586655 2.143921-13.996018-1.850342-.418602-4.087952-.691978-7.327942-.691978-11.375976 0-17.279968 6.479995-17.279968 22.608001v29.519997h-28.512024v-74.735992h27.359985v11.951995h.288025c4.607971-9.072006 10.656006-13.824005 21.023987-13.824005 2.736023 0 5.471985.432007 8.35199 1.152008v15.660881c6.304443-9.976081 17.668823-16.812889 34.70404-16.812889zm0 57.744004c10.94397 0 12.239991-10.655999 12.239991-18.576004 0-7.919999-1.296021-18.432-12.239991-18.432-10.94403 0-12.240051 10.512001-12.240051 18.432 0 7.920005 1.296021 18.576004 12.240051 18.576004z" fill-rule="evenodd"/></svg>

<?xml version="1.0" encoding="UTF-8"?>
<!-- Generated by Pixelmator Pro 3.7 -->
<svg width="1150" height="150" viewBox="0 0 1150 150" xmlns="http://www.w3.org/2000/svg">
    <path id="mick-schroeder" fill="#000000" fill-rule="evenodd" stroke="none" d="M 1057.040039 132 L 1085.552002 132 L 1085.552002 102.480003 C 1085.552002 86.351997 1091.456055 79.872002 1102.832031 79.872002 C 1108.592041 79.872002 1111.18396 80.736 1114.063965 81.744003 L 1114.063965 56.544006 C 1111.18396 55.824005 1108.447998 55.391998 1105.712036 55.391998 C 1095.343994 55.391998 1089.296021 60.143997 1084.687988 69.216003 L 1084.400024 69.216003 L 1084.400024 57.264008 L 1057.040039 57.264008 Z M 1052.287964 101.040001 C 1052.287964 71.807999 1039.472046 55.391998 1009.807983 55.391998 C 986.047974 55.391998 970.35199 73.104004 970.35199 94.848 C 970.35199 119.760002 988.35199 133.872009 1012.255981 133.872009 C 1029.104004 133.872009 1044.94397 126.384003 1050.703979 110.255997 L 1024.063965 110.255997 C 1021.76001 113.856003 1016.719971 115.584 1012.112 115.584 C 1003.039978 115.584 998.288025 109.68 997.567993 101.040001 Z M 997.711975 86.208 C 999.007996 78.143997 1003.76001 73.679993 1012.400024 73.679993 C 1019.744019 73.679993 1024.927979 79.295998 1024.927979 86.208 Z M 937.664001 94.559998 C 937.664001 103.344002 935.359985 113.136002 925.135986 113.136002 C 914.911987 113.136002 912.607971 103.344002 912.607971 94.559998 C 912.607971 85.776001 914.911987 76.127998 925.135986 76.127998 C 935.359985 76.127998 937.664001 85.776001 937.664001 94.559998 Z M 965.16803 29.184006 L 936.656006 29.184006 L 936.656006 65.472 L 936.367981 65.472 C 931.903992 59.136002 924.559998 55.391998 915.919983 55.391998 C 890.864014 55.391998 884.096008 76.559998 884.096008 94.272003 C 884.096008 113.136002 894.320007 133.872009 915.487976 133.872009 C 929.312012 133.872009 933.919983 128.399994 937.375977 123.792 L 937.664001 123.792 L 937.664001 132 L 965.16803 132 Z M 882.656006 101.040001 C 882.656006 71.807999 869.840027 55.391998 840.176025 55.391998 C 816.416016 55.391998 800.719971 73.104004 800.719971 94.848 C 800.719971 119.760002 818.719971 133.872009 842.624023 133.872009 C 859.471985 133.872009 875.312012 126.384003 881.072021 110.255997 L 854.432007 110.255997 C 852.127991 113.856003 847.088013 115.584 842.47998 115.584 C 833.40802 115.584 828.656006 109.68 827.935974 101.040001 Z M 828.080017 86.208 C 829.375977 78.143997 834.127991 73.679993 842.768005 73.679993 C 850.112 73.679993 855.296021 79.295998 855.296021 86.208 Z M 580.112 132 L 608.624023 132 L 608.624023 92.543999 C 608.624023 80.592003 614.960022 78.143997 620 78.143997 C 628.35199 78.143997 629.359985 84.192001 629.359985 92.832001 L 629.359985 132 L 657.872009 132 L 657.872009 80.736 C 657.872009 63.600006 645.632019 55.391998 632.23999 55.391998 C 620.143982 55.391998 613.664001 59.567993 608.911987 65.328003 L 608.624023 65.328003 L 608.624023 29.184006 L 580.112 29.184006 Z M 574.640015 85.632004 C 572.768005 64.895996 556.35199 55.391998 536.624023 55.391998 C 514.160034 55.391998 496.160004 71.087997 496.160004 94.704002 C 496.160004 118.32 514.160034 133.872009 536.624023 133.872009 C 556.783997 133.872009 572.768005 122.496002 575.504028 102.192001 L 548.288025 102.192001 C 547.711975 108.096001 543.392029 113.136002 537.200012 113.136002 C 526.255981 113.136002 524.671997 103.919998 524.671997 94.704002 C 524.671997 85.632004 526.255981 76.127998 537.200012 76.127998 C 540.223999 76.127998 542.528015 76.991997 544.400024 78.575996 C 546.271973 80.160004 547.280029 82.463997 547.567993 85.632004 Z M 492.992004 79.008003 C 492.272003 59.856003 472.832001 55.391998 456.70401 55.391998 C 441.727997 55.391998 421.424011 60.287994 421.424011 79.152 C 421.424011 91.968002 430.208008 99.024002 451.951996 102.624001 C 465.200012 104.928001 467.64801 106.223999 467.64801 110.543999 C 467.64801 114.863998 461.743988 116.304001 458 116.304001 C 454.544006 116.304001 451.951996 115.584 450.368011 114.143997 C 448.208008 112.272003 447.056 109.968002 446.911987 107.519997 L 419.696014 107.519997 C 420.127991 126.816002 439.424011 133.872009 456.992004 133.872009 C 475.135986 133.872009 495.007996 128.255997 495.007996 107.519997 C 495.007996 95.279999 486.799988 89.664001 477.152008 86.639999 C 467.64801 83.615997 456.70401 82.751999 452.096008 80.879997 C 450.511993 80.160004 448.783997 79.152 448.783997 76.991997 C 448.783997 72.240005 453.391998 71.231995 457.424011 71.231995 C 459.872009 71.231995 462.032013 71.951996 463.76001 73.391998 C 465.631989 74.688004 466.928009 76.559998 467.071991 79.008003 Z M 302.768005 132 L 331.279999 132 L 331.279999 110.400002 L 336.320007 104.928001 L 351.584015 132 L 385.855988 132 L 355.040009 85.487999 L 381.679993 57.264008 L 349.424011 57.264008 L 331.279999 78.863998 L 331.279999 29.184006 L 302.768005 29.184006 Z M 296.720001 85.632004 C 294.847992 64.895996 278.432007 55.391998 258.703979 55.391998 C 236.240005 55.391998 218.240005 71.087997 218.240005 94.704002 C 218.240005 118.32 236.240005 133.872009 258.703979 133.872009 C 278.864014 133.872009 294.847992 122.496002 297.584015 102.192001 L 270.368011 102.192001 C 269.791992 108.096001 265.471985 113.136002 259.279999 113.136002 C 248.335999 113.136002 246.751999 103.919998 246.751999 94.704002 C 246.751999 85.632004 248.335999 76.127998 259.279999 76.127998 C 262.303986 76.127998 264.608002 76.991997 266.480011 78.575996 C 268.35199 80.160004 269.359985 82.463997 269.64801 85.632004 Z M 212.335999 29.184006 L 183.824005 29.184006 L 183.824005 49.199997 L 212.335999 49.199997 Z M 183.824005 132 L 212.335999 132 L 212.335999 57.264008 L 183.824005 57.264008 Z M 51.632 132 L 80.143997 132 L 80.143997 91.536003 C 80.143997 83.615997 82.447998 78.143997 89.792 78.143997 C 98.431999 78.143997 99.152 84.480003 99.152 91.536003 L 99.152 132 L 127.664001 132 L 127.664001 91.536003 C 127.664001 83.615997 129.968002 78.143997 137.311996 78.143997 C 145.951996 78.143997 146.671997 84.480003 146.671997 91.536003 L 146.671997 132 L 175.184006 132 L 175.184006 80.736 C 175.184006 68.639999 168.703995 55.391998 149.552002 55.391998 C 130.975998 55.391998 125.216003 66.335999 124.064003 67.056 C 120.608002 59.567993 111.968002 55.391998 103.903999 55.391998 C 93.536003 55.391998 85.183998 58.559998 79.424004 67.199997 L 79.136002 67.199997 L 79.136002 57.264008 L 51.632 57.264008 Z M 757.952026 55.391998 C 786.031982 55.391998 798.703979 73.968002 798.703979 94.559998 C 798.703979 115.295998 786.031982 133.872009 757.952026 133.872009 C 729.872009 133.872009 717.200012 115.295998 717.200012 94.559998 C 717.200012 89.71077 717.90271 84.973343 719.343933 80.56398 C 717.493591 80.145378 715.255981 79.872002 712.015991 79.872002 C 700.640015 79.872002 694.736023 86.351997 694.736023 102.480003 L 694.736023 132 L 666.223999 132 L 666.223999 57.264008 L 693.583984 57.264008 L 693.583984 69.216003 L 693.872009 69.216003 C 698.47998 60.143997 704.528015 55.391998 714.895996 55.391998 C 717.632019 55.391998 720.367981 55.824005 723.247986 56.544006 L 723.247986 72.204887 C 729.552429 62.228806 740.916809 55.391998 757.952026 55.391998 Z M 757.952026 113.136002 C 768.895996 113.136002 770.192017 102.480003 770.192017 94.559998 C 770.192017 86.639999 768.895996 76.127998 757.952026 76.127998 C 747.007996 76.127998 745.711975 86.639999 745.711975 94.559998 C 745.711975 102.480003 747.007996 113.136002 757.952026 113.136002 Z"/>
</svg>
